dealnox/img/sprite/icon-youtube.svg

<svg width="46" height="32" viewBox="0 0 46 32" fill="none" xmlns="http://www.w3.org/2000/svg">
<path d="M44.074 5.15772C43.8191 4.19534 43.3227 3.32405 42.6374 2.63648C41.9328 1.92775 41.0692 1.42079 40.1281 1.16343C36.606 0.180743 22.4952 0.180743 22.4952 0.180743C16.6125 0.109895 10.7314 0.421501 4.8848 1.1138C3.94369 1.39017 3.08169 1.90846 2.37546 2.62258C1.68155 3.32932 1.17893 4.20084 0.916372 5.15574C0.285648 8.75247 -0.0208001 12.4045 0.00115749 16.0626C-0.0213478 19.7174 0.284349 23.3683 0.916372 26.9695C1.17331 27.9204 1.67405 28.7879 2.36984 29.4887C3.06563 30.1895 3.93208 30.6958 4.8848 30.9638C8.45376 31.9445 22.4952 31.9445 22.4952 31.9445C28.3853 32.0154 34.274 31.7038 40.1281 31.0114C41.0692 30.754 41.9328 30.2471 42.6374 29.5384C43.3224 28.8509 43.8183 27.9795 44.0721 27.0171C44.7193 23.4218 45.034 19.7682 45.0117 16.1083C45.0604 12.4328 44.7461 8.76204 44.074 5.15574V5.15772ZM18.0091 22.86V9.26715L29.7494 16.0646L18.0091 22.86Z" fill="#968E8E"/>
</svg>

<svg width="46" height="32" fill="none" xmlns="http://www.w3.org/2000/svg"><path d="M44.074 5.158a5.599 5.599 0 0 0-1.437-2.522 5.64 5.64 0 0 0-2.509-1.473C36.606.181 22.495.181 22.495.181c-5.883-.071-11.764.24-17.61.933a5.852 5.852 0 0 0-2.51 1.509A5.818 5.818 0 0 0 .916 5.156a61.04 61.04 0 0 0-.915 10.907A60.93 60.93 0 0 0 .916 26.97c.257.95.758 1.818 1.454 2.519a5.724 5.724 0 0 0 2.515 1.475c3.569.98 17.61.98 17.61.98 5.89.071 11.779-.24 17.633-.933a5.64 5.64 0 0 0 2.51-1.473 5.588 5.588 0 0 0 1.434-2.52c.647-3.596.962-7.25.94-10.91a55.764 55.764 0 0 0-.938-10.952v.002zM18.009 22.86V9.267l11.74 6.798-11.74 6.795z" fill="#968E8E"/></svg>
